packages/ffe-icons/icons/open/400/sm/format_text_wrap.svg

<svg xmlns="http://www.w3.org/2000/svg" height="20" viewBox="0 -960 960 960" width="20"><path d="M228.211-192Q213-192 202.5-202.344 192-212.689 192-227.981v-503.727Q192-747 202.289-757.5q10.29-10.5 25.5-10.5Q243-768 253.5-757.656q10.5 10.345 10.5 25.637v503.727Q264-213 253.711-202.5q-10.29 10.5-25.5 10.5Zm504 0Q717-192 706.5-202.344 696-212.689 696-227.981v-503.727Q696-747 706.289-757.5q10.29-10.5 25.5-10.5Q747-768 757.5-757.656q10.5 10.345 10.5 25.637v503.727Q768-213 757.711-202.5q-10.29 10.5-25.5 10.5ZM425-284l-88-87q-11-10.636-11-24.818Q326-410 337-421l87.773-87.656Q436-520 450.5-520t25.5 11q11 11 11 25.5T476-458l-26 26h54q29.7 0 50.85-21.212 21.15-21.213 21.15-51Q576-534 554.85-555 533.7-576 504-576H348q-15.3 0-25.65-10.289-10.35-10.29-10.35-25.5Q312-627 322.35-637.5 332.7-648 348-648h156q60 0 102 42t42 102q0 60-42 102t-102 42h-54l26 26q11 11 11 25t-10.522 25Q465-273 450.333-273q-14.666 0-25.333-11Z"/></svg>

<svg xmlns="http://www.w3.org/2000/svg" height="20" viewBox="0 -960 960 960" width="20"><path d="M228.21-192q-15.21 0-25.71-10.34-10.5-10.35-10.5-25.64v-503.73q0-15.29 10.29-25.79t25.5-10.5q15.21 0 25.71 10.34 10.5 10.35 10.5 25.64v503.73q0 15.29-10.29 25.79t-25.5 10.5Zm504 0q-15.21 0-25.71-10.34-10.5-10.35-10.5-25.64v-503.73q0-15.29 10.29-25.79t25.5-10.5q15.21 0 25.71 10.34 10.5 10.35 10.5 25.64v503.73q0 15.29-10.29 25.79t-25.5 10.5ZM425-284l-88-87q-11-10.64-11-24.82T337-421l87.77-87.66Q436-520 450.5-520t25.5 11q11 11 11 25.5T476-458l-26 26h54q29.7 0 50.85-21.21 21.15-21.21 21.15-51T554.85-555Q533.7-576 504-576H348q-15.3 0-25.65-10.29Q312-596.58 312-611.79t10.35-25.71Q332.7-648 348-648h156q60 0 102 42t42 102q0 60-42 102t-102 42h-54l26 26q11 11 11 25t-10.52 25q-11.48 11-26.15 11-14.66 0-25.33-11Z"/></svg>
